X:1
T:Title
%%score 1 2
L:1/8
Q:1/4=98
M:4/4
K:F
V:1 treble nm="Grand Piano, Unnamed-000"
V:2 bass nm="Choir Pad, Erie, 87.87D"
V:1
 [Fc]3 [Fc] [Fd][Fc][FA][CF] | [DF]4 [B,D]4 | C3 [CF] [CA][CF][Fc][FA] | [EG]8 | %4
w: By~Charles~Crozat~Converse,~1868 * * * * *||||
 [Fc]3 [Fc] [Fd][Fc][FA][CF] | [DF]4 [B,D]4 | [A,C]3 [CF] [FA][CG][CF][CE] | [CF]8 | %8
w: ||||
 [EG]3 [_E^F] [=EG][=FA][GB][EG] | [FA]4 [Fc]4 | [Fd]3 [Fd] [Fc][FA][GB][FA] | [EG]8 | %12
w: ||||
 [Fc]3 [Fc] [Fd][Fc][FA][CF] | [DF]4 [B,D]4 | [A,C]3 [CF] [FA][CG][CF][CE] | [CF]8 |] %16
w: ||||
V:2
 [F,A,]3 [F,A,] [F,B,][F,A,][F,C][F,A,] | [B,,B,]4 [B,,F,]4 | %2
 [F,A,]3 [F,A,] [F,A,][F,A,][F,A,][F,C] | [C,C]8 | [A,C]3 [A,C] B,[A,C][F,C][F,A,] | %5
 [B,,B,]4 [B,,F,]4 | [C,F,]3 [C,A,] [C,C][C,B,][C,A,][C,G,] | [F,A,]8 | %8
 [C,C]3 [C,C] [C,C][C,C][C,C][C,C] | [F,C]4 [F,A,]4 | B,3 B, [A,C][F,C][E,C][F,C] | [C,C]8 | %12
 [A,C]3 [F,C] [F,B,][F,A,][F,C][F,A,] | [B,,B,]4 [B,,F,]4 | %14
 [C,F,]3 [C,A,] [C,C][C,B,][C,A,][C,G,] | [F,A,]8 |] %16

